X:1
T:Kinderlieder in 6 Heften, Heft I
T:Vöglein im hohen Baum
T:Friedrich Silcher
T:Wilhelm Hey
T:Vöglein im hohen Baum
T:CPDL   —   Creative Commons Attribution Non Commercial 3.0
C:Friedrich Silcher
Z:Wilhelm Hey
Z:CPDL   —   Creative Commons Attribution Non Commercial 3.0
%%score ( 1 2 )
L:1/8
Q:1/4=80
M:3/4
K:Eb
V:1 treble nm="Sopran\nAlt"
V:2 treble 
V:1
"^Gemäßigt" B2 G2 c2 | B3 e B2 | B2 A2 G2 | F3 G F2 | F2 d2 c2 | B4 z2 | f2 d2 B2 | e2 dc B2 | %8
w: 1.  Vög- lein im|ho- hen Baum,|klein ist's, ihr|seht es kaum,|singt doch so|schön,|dass wohl von|nah und * fern|
w: 2.  Blüm- lein im|Wie- sen- grund|blü- hen so|lieb und bunt,|tau- send zu-|gleich.|Wenn ihr vor-|ü- ber * geht,|
w: 3.  Wäs- ser- lein|fließt so fort,|im- mer von|Ort zu Ort|nie- der ins|Tal;|dürs- tet nun|Mensch und * Vieh,|
w: 4.  Habt ihr es|auch be- dacht,|wer hat so|schön ge- macht|al- le die|drei?|Gott, der Herr,|mach- te * sie,|
 f2 d2 B2 | e2 dc B2 | G2 A2 B2 | c4 z2 | f2 ed cd | e4 z2 |] %14
w: al- le die|Leu- te * gern|hor- chen und|steh'n,|hor- chen * und *|steh'n.|
w: wenn ihr die|Far- ben * seht,|freu- et ihr|euch,|freu- et * ihr *|euch.|
w: kom- men zum|Bäch- lein * sie,|trin- ken zu-|mal,|trin- ken * zu- *|mal.|
w: dass sich nun|spät und * früh|je- des d'ran|freu',|je- des * d'ran *|freu'.|
V:2
 G2 E2 A2 | G3 E G2 | G2 F2 E2 | D3 E D2 | F2 F2 E2 | D4 x2 | D2 F2 A2 | G2 A2 G2 | D2 F2 A2 | %9
 G2 A2 G2 | E2 F2 G2 | A4 x2 | A2 F2 A2 | G4 x2 |] %14

